X:1
T:Lift Him Up
T:Lift Him Up
T:James Milton Dungan
T:S. R. Amy, 1906
T:Public Domain Courtesy of the Cyber Hymnal™
T:Public Domain Courtesy of the Cyber Hymnal™
C:James Milton Dungan
Z:Public Domain
Z:Courtesy of the Cyber Hymnal™
%%score ( 1 2 ) ( 3 4 ) 5
L:1/8
Q:1/4=85
M:4/4
K:D
V:1 treble 
V:2 treble 
V:3 treble 
V:4 treble 
V:5 bass 
V:1
 D | FFFF BAFD | F2 E2 D3 A x4 | BBBB BBcd | c2 B2 !fermata!A2 Bc x2 | ddcB AAFA | %6
w: 1.~Your|broth- er has a bur- den that is|hard to bear; He|fell be- fore the tempt- er in a|sin- ful snare, And he|looks to you to help him; He has|
w: 2.~In|God’s own im- age, with a pre- cious|soul to save, His|strength turned in- to weak- ness, who was|once so brave; He is|strug- gling for a foot- hold, And would|
w: 3.~If|you will give him cour- age and his|soul is won, Your|heart will leap with glad- ness When the|work is done; One more|star to shine in Hea- ven, O what|
 BBDE !fermata!F2 AA | dcBd A!fermata!F D>E | F2 F>E !fermata!D2 ||"^Chorus or Quartet" [GA]>[GA] | %10
w: drained the bit- ter cup: In the|name of Christ your Sav- ior, Lift him|up, lift him up.||
w: fain re- nounce the cup: In the|name of Christ your Sav- ior, Lift him|up, lift him up.|Lift him|
w: joy will fill your cup! In the|name of Christ your Sav- ior, Lift him|up, lift him up.||
 d4- [Fd]>[Fc] [GB]>[Gd] | [FA]2 [DF]4 [FA]>[DB] | G6 [CA]>[CB] | F6 [GA]>[GA] | %14
w: ||||
w: up, lift up your bro-|* ther; Lift him|up, lift him|up; In the|
w: ||||
 d4- [Fd]>[Fc] [GB]>[Gd] | [FA]2 [DF]4 D>[DE] | F6 !fermata![CF]>[A,E] | [A,D]6 z |] %18
w: ||||
w: name of Christ your Sav-|* ior, Lift him|up, lift him|up.|
w: ||||
V:2
 x | x8 | x12 | x8 | x10 | x8 | x8 | x8 | x6 || x2 | F2 F3/2 F/ x4 | x8 | (C2 C>C C2) x2 | %13
 (D2 D>D D2) x2 | F2 F>F x4 | x6 D3/2 x/ | (D2 D>D D2) x2 | x7 |] %18
V:3
 D | z A,DG, [DB][DA][A,DF][^G,D] | F2 [A,C] E2 [G,A,C] D3 ([G,B,][F,A,])[DFA] | %3
 [^DFB][DFB][EGB][DAB] [EGB][EGB][E^Gc][EG^d] | c2 [EA] B2 [DE=G] !fermata![CEA]2 [CEB][EAc] | %5
 [DAd][DAd][DAc][DGB] [DA][DA][DF][EA] | [DFB][DFB][B,D][B,E] [^A,CF]2 [CG=A][CGA] | %7
 [DFd][DAc][DGB][DFd] [DFA][A,DF] [B,D]>[DE] | [DF]2 [A,CF]>[G,A,CE] !fermata![F,A,D]2 || x2 | x8 | %11
 x8 | x8 | x8 | x8 | x8 | x8 | x7 |] %18
V:4
 x | F4 x4 | [A,C] [G,A,C] [F,A,] x9 | x8 | [EA][DE^G] x8 | x8 | x8 | x8 | x6 || x2 | x8 | x8 | %12
 x8 | x8 | x8 | x8 | x8 | x7 |] %18
V:5
 z | D,4 G,F,D,B,, | A,,4 D,3 =C, x4 | B,,A,,G,,F,, E,,2 E,,2 | %4
w: ||||
 [E,,E,]2 [E,,E,]2 !fermata!A,,2 G,2 x2 | F,2 G,2 F,2 D,C, | B,,2 [G,,G,]2 !fermata![F,,F,]2 E,2 | %7
w: |||
 [D,,D,]2 [D,,D,]2 !fermata![D,,D,]2 [B,,F,]>[B,,^G,] | [A,,A,]2 [A,,,A,,]2 !fermata![D,,D,]2 || %9
w: ||
 [A,C]>[A,C] | [D,D]2 [D,D]>[D,D] [D,D]>[D,D] [G,D]>[G,B,] | [D,D]2 [D,A,]4 [D,A,]>[D,F,] | %12
w: |* Lift him up, * * *||
 [E,A,]2 [A,,A,]>[A,,A,] [A,,A,]2 [A,,A,]>[A,,A,] | [D,A,]2 [D,A,]>[D,A,] [D,A,]2 [A,C]>[A,C] | %14
w: ||
 [D,D]2 [D,D]>[D,D] [D,D]>[D,D] [G,D]>[G,B,] | [D,D]2 [D,D]4 [B,,F,]>[B,,^G,] | %16
w: ||
 [A,,A,]2 [A,,A,]>[A,,A,] [A,,A,]2 !fermata![A,,G,]>[A,,G,] | [D,F,]6 z |] %18
w: ||

